X:1
T:Colonel Hill, 10.12.12.12.12
T:Colonel Hill, 10.12.12.12.12
T:Scott Wederbaugh, 2017
T:© 2017 Scott Werdebaugh. Reproduce or publish freely for Christian worship or devotions. Courtesy of the Cyber Hymnal™
C:Scott Wederbaugh, 2017
Z:© 2017 Scott Werdebaugh. Reproduce or publish freely for Christian worship or devotions.
Z:Courtesy of the Cyber Hymnal™
%%score 1 2
L:1/8
Q:1/4=113
M:4/4
K:C
V:1 treble 
V:2 bass 
V:1
 [G,C]4 [CE]2 [B,D]2 | [G,C]6 [CE]2 | [EG]3 [EG] [EG]2 [FA]2 | [EG]4 z2 [EG]2 | %4
 [FA]3 [FA] [GB]2 [Ec]2 | [EG]6 [EG]2 | [D^F]3 [DF] [DG]2 [DA]2 | [DB]4 z2 [DB]2 | %8
 [Ec]3 [Ec] [GB]2 [=FA]2 | [GB]6 [EG]2 | [FA]3 [FA] [EG]2 [DF]2 | [EG]6 z2 | %12
 [CA]2 [CA][CA] [EG]2 [DF]2 | [EG]6 z2 | [G,C]2 [A,C][A,E] [B,D]3 [A,C] | [G,C]4 z2 [CE]2 | %16
 [CA]3 [CA] [DG]2 [DF]2 | [EG]6 [CE]2 | [CF]3 [CE] [B,E]2 [B,D]2 | [G,C]8 |] %20
V:2
 [C,E,]4 [C,G,]2 [G,,G,]2 | [C,E,]6 [C,G,]2 | [C,C]3 [C,C] [C,C]2 [F,C]2 | [C,C]4 z2 [C,C]2 | %4
 [F,C]3 [F,C] [G,D]2 [C,G,]2 | [C,C]6 [C,C]2 | [D,A,]3 [D,A,] [G,B,]2 [D,^F,]2 | %7
 [G,,G,]4 z2 [G,,G,]2 | [C,G,]3 [C,G,] [G,D]2 [F,C]2 | [G,D]6 [C,C]2 | %10
 [F,C]3 [F,C] [C,C]2 [G,B,]2 | [C,C]6 z2 | [F,A,]2 [F,A,][F,A,] [C,C]2 [G,B,]2 | [C,C]6 z2 | %14
 [C,E,]2 [F,,A,][A,C] [G,,G,]3 [A,,A,] | [C,E,]4 z2 [C,G,]2 | [F,A,]3 [F,A,] [G,B,]2 [G,B,]2 | %17
 [C,C]6 [C,G,]2 | [F,A,]3 [C,G,] [G,,G,]2 [G,,F,]2 | [C,E,]8 |] %20

